X:1
T:Surrexit Christus II
T:André Vierendeels
T:Melody by Georg Vogler (1625) (Bass voice), other voices supplied editorially.
T:Source : Catechismus---Würzburg---J.Volmari---1625. Editor : André Vierendeels (19/09/17)
T:Notes : Original clefs : F4 Original note values have been halved
T:Surrexit Christus II
T:©
T:©
C:André Vierendeels
Z:©
%%score [ 1 2 3 ]
L:1/8
Q:1/4=100
M:2/2
K:F
V:1 treble nm="Soprano" snm="S"
V:2 treble nm="Alto" snm="A"
V:3 bass nm="Bass" snm="B"
V:1
"^1)" F4 c2 A2 | F2 B2 d3 c | G2 c3 B G2 | A4 z2 c2 | c2 B2 c4 | G4 A4 | c4 c3 d | e2 d2 c4 | %8
w: Sur- re- xit|Chri- stus ho- di-|e, Al- le- lu-|ia, Al-|le- lu- ia,|Al- le|lu- ia, Al-|le- * lu-|
w: Mor- tem sui|pas- sus pri- di-|e,- * * *||||||
 =B4 c4 :: A4 A2 c2 | G3 B A3 G | A6 G2 | cBGA FGAB | G4 !fermata!A4 :| %14
w: * ia.|Hu- ma- no|pro- so- la- mi-|ne, Al-|le- * * * lu- * * *|* ia.|
w: |Mi- ser- ri-|mo pro ho- mi-|ne, _|_ _ _ _ _ _ _ _||
V:2
"^2)""^1)" A4 F2 C2 | D2 F4 D2- | D2 F2 F2 F2 | CB,CD EF G2 | A2 F2 E4- | E4 z2 F2 | A2 GF E3 F | %7
w: Sur- re- xit|Chri- stus ho-|* di- e, Al-|le- * * * * * *|* lu- ia,|_ Al-|le- lu- * ia, Al-|
w: Mu- li- e-|res ô tre-|* mu- lae, _|_ _ _ _ _ _ _||||
 AGFG A4 | G4 G4 :: z2 C2 D2 F2 | E2 FG AB G2 | F4 D2 E2 | EFDC B,2 CD | E4 !fermata!C4 :| %14
w: le- * * * lu-|* ia.|Hu- ma- no|pro- so- * sa- * *|mi- ne, Al-|le- * * * lu- * *|* ia.|
w: ||In Ga- li-|le- am _ _ _ per-|gi- te, _|_ _ _ _ _ _ _||
V:3
"^3)""^1)""^4)" F,4 F,2 F,2 | B,,2 B,,2 B,,2 G,,2 | B,,2 A,,3 B,, C,2 | F,,G,,A,,B,, C,4 | %4
w: Sur- re- xit|Chri- tus ho- di-|e, Al- le- lu-|ia, _ _ _ _|
w: Dis- ci- pu-|lis hoc di- ci-|te, _ _ _|_ _ _ _ _|
 A,,2 B,,2 C,4 | C,4 z4 | F,,4 C,3 B,, | A,,2 B,,2 F,,4 | G,,4 C,4 :: z2 F,2 F,2 F,2 | %10
w: Al- le- lu-|ia,|Al le- lu-|ia, Al- le-|lu- ia.|Hu- ma- no|
w: |||||Quod sur- re-|
 C,3 C, F,3 E, | D,6 C,2 | C,4 D,4 | C,4 !fermata!F,,4 :| %14
w: pro- so- la- mi-|ne, Al-|le lu-|* ia.|
w: xit Rex glo- ri-|e, _|_ _||

